src/pos-icons/select-marker.svg

<svg height="24" viewBox="0 0 24 24" width="24" xmlns="http://www.w3.org/2000/svg"><path d="m4 3h1v2h-2v-1c0-.55.45-1 1-1m16 0c.55 0 1 .45 1 1v1h-2v-2zm-5 2v-2h2v2zm-4 0v-2h2v2zm-4 0v-2h2v2zm4 16v-2h2v2zm-4 0v-2h2v2zm-3 0c-.55 0-1-.45-1-1v-1h2v2zm-1-6h2v2h-2zm0-4h2v2h-2zm0-4h2v2h-2zm18 0v2h-2v-2zm-1.5 6c1.9 0 3.5 1.6 3.5 3.5 0 2.6-3.5 6.5-3.5 6.5s-3.5-3.9-3.5-6.5c0-1.9 1.6-3.5 3.5-3.5m0 4.8c.7 0 1.3-.6 1.2-1.2 0-.6-.6-1.2-1.2-1.2s-1.2.5-1.2 1.2c0 .6.5 1.2 1.2 1.2z"/></svg>

<?xml version="1.0" encoding="UTF-8"?><!DOCTYPE svg PUBLIC "-//W3C//DTD SVG 1.1//EN" "http://www.w3.org/Graphics/SVG/1.1/DTD/svg11.dtd"><svg xmlns="http://www.w3.org/2000/svg" xmlns:xlink="http://www.w3.org/1999/xlink" version="1.1" id="mdi-select-marker" width="24" height="24" viewBox="0 0 24 24"><path d="M4 3H5V5H3V4C3 3.45 3.45 3 4 3M20 3C20.55 3 21 3.45 21 4V5H19V3H20M15 5V3H17V5H15M11 5V3H13V5H11M7 5V3H9V5H7M11 21V19H13V21H11M7 21V19H9V21H7M4 21C3.45 21 3 20.55 3 20V19H5V21H4M3 15H5V17H3V15M3 11H5V13H3V11M3 7H5V9H3V7M21 7V9H19V7H21M19.5 13C21.4 13 23 14.6 23 16.5C23 19.1 19.5 23 19.5 23C19.5 23 16 19.1 16 16.5C16 14.6 17.6 13 19.5 13M19.5 17.8C20.2 17.8 20.8 17.2 20.7 16.6C20.7 16 20.1 15.4 19.5 15.4C18.9 15.4 18.3 15.9 18.3 16.6C18.3 17.2 18.8 17.8 19.5 17.8Z" /></svg>
